X:1
T:Willott's -- Hornpipe
Z:Bob Puckette <bpuckette:msn.com> 2003-3-10
R:hornpipe
B:Cole's 1000 Fiddle Tunes
M:2/4
L:1/16
K:A
vED|CEAc efec|defd .B2("4"ed)|cd"4"ec AcBA|GABG .E2(ED)|
CEAc efec|defd .B2(ed)|ceAc BdGB|A2c2A2:|
|:vcd|ecae "4"c'aea|fefg bagf|fedc dcBA|GABc .B2(cd)|
ecae "4"c'aea|fefg bagf|eagf ecdB|A2c2A2:|
